icon-themes/breeze_svg/cmd/sc_outlinefont.svg

<svg viewBox="0 0 16 16" xmlns="http://www.w3.org/2000/svg">/&gt;<path d="m6.6660156 2-5.1894531 12h3.5898437l1.1464844-3h3.5664063l1.2421871 3h3.507813l-5.2128908-12zm.65625 1h1.3554688l4.3222656 10h-1.339844l-1.175781-3h-4.96875l-1.1757812 3h-1.3398438zm.6777344 1.328125c-.77067 1.48709-1.4143037 3.078825-1.9960938 4.671875h3.9921876c-.7918302-2.1666-.9699138-2.407305-1.9960938-4.671875zm0 2.3652344.5214844 1.3066406h-1.0449219z" fill="#4d4d4d"/></svg>

<svg xmlns="http://www.w3.org/2000/svg" viewBox="0 0 16 16">
     />
 <path 
     style="fill:#4d4d4d" 
     d="M 6.6660156 2 L 1.4765625 14 L 5.0664062 14 L 6.2128906 11 L 9.7792969 11 L 11.021484 14 L 14.529297 14 L 9.3164062 2 L 6.6660156 2 z M 7.3222656 3 L 8.6777344 3 L 13 13 L 11.660156 13 L 10.484375 10 L 5.515625 10 L 4.3398438 13 L 3 13 L 7.3222656 3 z M 8 4.328125 C 7.22933 5.815215 6.5856963 7.40695 6.0039062 9 L 9.9960938 9 C 9.2042636 6.8334 9.02618 6.592695 8 4.328125 z M 8 6.6933594 L 8.5214844 8 L 7.4765625 8 L 8 6.6933594 z "
     />
 </svg>
